!!!OTL: Das Maedchen und der Faehnrich Es war ein reiches Geschlechtelein
!!!ARE: Europa, Osteuropa, UdSSR, Ukraine, Wolga
!!!YOR: 6, S. 108
!!    1929 aufgezeichnet
!!!SCT: Q0127H
!!!YEM: Copyright 1995, estate of Helmut Schaffrath.
**kern
*ICvox
*Ivox
*M4/4
*k[f#]
*G:
{8b
=1
4.dd
8b
4dd
8ee
8dd
=2
4.cc
8b
4cc}
{8dd
8b
=3
8a
8a
4g
4a
4dd
=4
4cc
4b
4a}
{8a
8b
=5
4cc
8dd
8b
4a
4dd
=6
4cc
8cc
8b
4a}
{8g
8b
=7
8dd
8dd
4dd
8g
8a
4b
=8
4a
4b
4g}
{8a
8b
=9
4cc
8dd
8b
4a
4dd
=10
4cc
8cc
8b
4a}
{8g
8b
=11
8dd
8dd
4dd
8g
8a
4b
=12
4a
4b
4g
8r}
==
!!!AGN: Ballade, verbotene Liebe, Flucht
!! Verzierung (Vorschlag) . Schlusspause ergaenzt.
!!!ONB: ESAC (Essen Associative Code) Database: BALLADE
!!!AMT: simple quadruple
!!!AIN: vox
!!!EED: Helmut Schaffrath
!!!EEV: 1.0
*-
